img/furcation-logo-square.svg

<?xml version="1.0" encoding="UTF-8" standalone="no"?>
<svg
   width="639.41"
   height="639.41"
   viewBox="0 0 169.177 169.177"
   xml:space="preserve"
   version="1.1"
   id="svg1090"
   sodipodi:docname="furcation-logo-square.svg"
   inkscape:version="1.2.1 (9c6d41e410, 2022-07-14)"
   xmlns:inkscape="http://www.inkscape.org/namespaces/inkscape"
   xmlns:sodipodi="http://sodipodi.sourceforge.net/DTD/sodipodi-0.dtd"
   xmlns="http://www.w3.org/2000/svg"
   xmlns:svg="http://www.w3.org/2000/svg"><defs
     id="defs1094" /><sodipodi:namedview
     id="namedview1092"
     pagecolor="#ffffff"
     bordercolor="#000000"
     borderopacity="0.25"
     inkscape:showpageshadow="2"
     inkscape:pageopacity="0.0"
     inkscape:pagecheckerboard="0"
     inkscape:deskcolor="#d1d1d1"
     showgrid="false"
     inkscape:zoom="1.1357325"
     inkscape:cx="410.30788"
     inkscape:cy="344.71145"
     inkscape:window-width="1941"
     inkscape:window-height="1230"
     inkscape:window-x="2599"
     inkscape:window-y="82"
     inkscape:window-maximized="0"
     inkscape:current-layer="svg1090" /><rect
     style="fill:#1b1464;fill-opacity:1;stroke-width:0.2;stop-color:#000000"
     id="rect4445"
     width="169.177"
     height="169.177"
     x="0"
     y="0"
     ry="0" /><path
     id="path1080"
     style="fill:#ffffff;fill-opacity:1;stroke:none;stroke-width:1.11715;stroke-dasharray:none;stroke-opacity:1;stop-color:#000000"
     d="M 89.395875 65.197019 C 88.377876 65.196019 87.356105 66.056839 85.303107 67.780837 L 41.792125 103.49696 C 39.104127 105.99895 43.815156 111.03517 47.357152 107.77318 C 47.357152 107.77318 75.821881 84.047844 89.179868 73.206855 C 103.47285 84.639844 131.76688 108.22276 131.76688 108.22276 C 135.78287 111.18876 139.52512 105.53478 136.64513 103.35278 L 93.469006 67.78187 C 91.429008 66.060872 90.414874 65.198052 89.395875 65.198052 L 89.395875 65.197019 z M 89.328179 75.858886 L 51.614768 107.09518 L 51.614768 140.67293 C 48.894771 141.99093 46.093135 143.66392 43.195138 145.75892 C 44.165137 146.97492 45.491254 148.20104 46.913252 149.43104 C 82.073217 126.65407 99.13778 164.55505 129.14275 151.49706 C 132.59475 149.94307 137.10624 146.26408 137.71224 145.25508 L 134.89123 141.55505 C 135.05623 141.94205 130.49698 146.56222 126.72998 146.92422 L 126.72998 106.67815 L 89.328179 75.858886 z M 82.350836 96.529432 C 82.596015 96.530278 82.852392 96.557278 83.120814 96.613664 C 85.981963 97.214707 87.960289 100.96402 87.673502 104.51498 C 87.38671 108.06595 85.408423 109.79784 82.576145 109.07284 C 79.743871 108.34782 78.1662 104.59169 78.502497 101.02373 C 78.696849 98.961742 79.980773 96.521256 82.350836 96.529432 z M 95.851803 96.573874 C 98.221866 96.565697 99.50579 99.006184 99.700142 101.06817 C 100.03644 104.63613 98.458251 108.39226 95.625977 109.11728 C 92.793699 109.84228 90.815929 108.11039 90.529137 104.55942 C 90.24235 101.00846 92.220159 97.259149 95.081308 96.658106 C 95.349731 96.601719 95.606624 96.574719 95.851803 96.573874 z M 104.3846 107.57474 C 106.77593 107.57176 107.94083 109.20284 107.55753 112.18634 C 107.14634 115.38693 105.39362 118.52367 102.66998 118.7606 C 99.946351 118.99752 98.353928 117.17183 98.579798 113.97124 C 98.805668 110.77065 101.16643 107.8344 103.89006 107.59748 C 104.06029 107.58267 104.22518 107.57494 104.3846 107.57474 z M 74.210775 108.21036 C 74.370197 108.21056 74.535091 108.21777 74.705318 108.23258 C 77.428948 108.4695 79.789711 111.40575 80.015581 114.60634 C 80.241451 117.80694 78.649028 119.63314 75.925397 119.39622 C 73.201766 119.15929 71.449036 116.02255 71.037846 112.82196 C 70.654549 109.83846 71.819453 108.20737 74.210775 108.21036 z M 90.107975 115.39182 C 95.739032 115.34175 101.25452 123.97827 101.7641 128.07113 C 101.7343 132.24237 98.373827 132.68169 94.355255 130.52835 C 91.163203 129.2313 89.354922 129.25238 85.3584 130.70353 C 81.339828 132.8569 78.283538 131.89278 78.19554 128.01274 C 78.205108 122.49041 82.843333 115.56322 89.562789 115.42386 C 89.744513 115.40372 89.926328 115.39344 90.107975 115.39182 z "
     transform="translate(-4.627,-18.294)" /><g
     transform="rotate(.946 1106.803 -103.97)"
     style="fill:#fff;stroke:none"
     id="g1088"><circle
       style="fill:none;fill-opacity:1;stroke:none;stroke-width:1;stroke-dasharray:none;stroke-opacity:1;stop-color:#000"
       cx="-127.329"
       cy="-43.342"
       transform="rotate(-149.595)"
       r="42.077"
       id="circle1082" /><g
       aria-label="FURCATION"
       style="font-size:16.0858px;font-family:Arial;-inkscape-font-specification:Arial;letter-spacing:-.767292px;stroke-width:15.199;stop-color:#000"
       id="g1086"><path
         d="m52.151 79.311-9.19-6.935 4.678-6.201 1.085.818-3.761 4.985 2.846 2.148 3.255-4.314 1.085.819-3.255 4.313 4.175 3.151zM56.203 58.48l1.178-.966 4.218 5.144q1.1 1.343 1.445 2.381.343 1.039-.044 2.19-.386 1.139-1.674 2.194-1.25 1.026-2.4 1.248-1.15.22-2.157-.314-1.012-.541-2.173-1.956l-4.218-5.145 1.178-.966 4.214 5.138q.95 1.16 1.617 1.539.666.367 1.433.236.772-.135 1.531-.758 1.3-1.066 1.37-2.108.07-1.042-1.305-2.719zM66.242 65.445 61.459 54.97l4.645-2.12q1.4-.64 2.26-.687.855-.054 1.617.462.762.515 1.157 1.38.509 1.114.136 2.208-.372 1.094-1.785 1.99.67.013 1.074.14.862.28 1.786.868l3.124 2.019-1.743.796-2.381-1.547q-1.038-.665-1.66-.986-.621-.32-1.027-.377-.398-.06-.756.008-.258.058-.794.302l-1.608.734 2.124 4.652zm-1.286-6.485 2.98-1.36q.95-.434 1.398-.872.444-.444.527-1 .08-.563-.152-1.07-.34-.744-1.1-.975-.755-.234-1.92.298l-3.315 1.514zM83.617 55.76l1.567.119q-.151 1.931-1.213 3.12-1.055 1.18-2.827 1.486-1.834.318-3.116-.225-1.276-.552-2.125-1.863-.841-1.313-1.123-2.938-.307-1.773.138-3.205.452-1.441 1.58-2.338 1.134-.907 2.635-1.167 1.703-.295 3.014.37 1.311.666 2.04 2.158l-1.418.604q-.61-1.17-1.458-1.604-.848-.435-1.986-.238-1.308.227-2.081 1.007-.766.778-.938 1.9-.174 1.114.02 2.236.251 1.448.857 2.459.612 1.002 1.595 1.381.982.38 2.02.2 1.26-.218 2.01-1.098.748-.879.809-2.364zM85.701 59.525l5.118-11.222 1.638.1 4 11.78-1.732-.105-1.128-3.563-4.806-.294-1.475 3.403zm3.605-4.516 3.897.238-1.005-3.256q-.46-1.484-.67-2.433-.287 1.092-.753 2.157zM98.54 61.101l2.751-9.776-3.652-1.027.368-1.308 8.786 2.471-.368 1.308-3.667-1.031-2.75 9.776zM104.573 63.187l4.762-10.483 1.388.63-4.763 10.483zM110.654 59.572q1.638-2.353 3.826-2.801 2.192-.455 4.19.936 1.31.911 1.925 2.268.615 1.357.382 2.86-.222 1.501-1.21 2.92-1 1.437-2.37 2.167-1.37.73-2.842.577-1.468-.16-2.699-1.018-1.334-.929-1.936-2.305-.602-1.376-.367-2.868t1.101-2.736zm1.276.917q-1.19 1.708-.96 3.331.239 1.622 1.625 2.587 1.411.983 3.011.623 1.607-.356 2.877-2.18.803-1.154 1.007-2.285.214-1.133-.212-2.128-.416-.998-1.35-1.649-1.328-.924-2.926-.678-1.587.245-3.072 2.379zM117.317 71.393l8.854-7.361 1 1.202-3.086 10.43 6.952-5.78.933 1.124-8.854 7.36-1-1.201 3.092-10.435-6.957 5.784z"
         id="path1084" /></g></g></svg>

<?xml version="1.0" encoding="UTF-8"?>
<svg width="639.41" height="639.41" version="1.1" viewBox="0 0 169.18 169.18" xml:space="preserve" xmlns="http://www.w3.org/2000/svg"><rect width="169.18" height="169.18" ry="0" fill="#1b1464" stop-color="#000000" stroke-width=".2"/><path transform="translate(-4.627,-18.294)" d="m89.396 65.197c-1.018-1e-3 -2.0398 0.85982-4.0928 2.5838l-43.511 35.716c-2.688 2.502 2.023 7.5382 5.565 4.2762 0 0 28.465-23.725 41.823-34.566 14.293 11.433 42.587 35.016 42.587 35.016 4.016 2.966 7.7582-2.688 4.8782-4.87l-43.176-35.571c-2.04-1.721-3.0541-2.5838-4.0731-2.5838v-0.001033zm-0.067696 10.662-37.713 31.236v33.578c-2.72 1.318-5.5216 2.991-8.4196 5.086 0.97 1.216 2.2961 2.4421 3.7181 3.6721 35.16-22.777 52.225 15.124 82.229 2.066 3.452-1.554 7.9635-5.233 8.5695-6.242l-2.821-3.7c0.165 0.387-4.3942 5.0072-8.1612 5.3692v-40.246l-37.402-30.819zm-6.9773 20.671c0.24518 8.46e-4 0.50156 0.027846 0.76998 0.084232 2.8611 0.60104 4.8395 4.3504 4.5527 7.9013-0.28679 3.551-2.2651 5.2829-5.0974 4.5579-2.8323-0.72502-4.4099-4.4812-4.0736-8.0491 0.19435-2.062 1.4783-4.5025 3.8483-4.4943zm13.501 0.044442c2.3701-0.008177 3.654 2.4323 3.8483 4.4943 0.3363 3.568-1.2419 7.3241-4.0742 8.0491-2.8323 0.725-4.81-1.0069-5.0968-4.5579-0.28679-3.551 1.691-7.3003 4.5522-7.9013 0.26842-0.056387 0.52532-0.083387 0.7705-0.084232zm8.5328 11.001c2.3913-0.00298 3.5562 1.6281 3.1729 4.6116-0.41119 3.2006-2.1639 6.3373-4.8876 6.5743-2.7236 0.23692-4.3161-1.5888-4.0902-4.7894s2.5866-6.1368 5.3103-6.3738c0.17023-0.01481 0.33512-0.02254 0.49454-0.02274zm-30.174 0.63562c0.15942 2e-4 0.32432 0.00741 0.49454 0.02222 2.7236 0.23692 5.0844 3.1732 5.3103 6.3738 0.22587 3.2006-1.3666 5.0268-4.0902 4.7899-2.7236-0.23693-4.4764-3.3737-4.8876-6.5743-0.3833-2.9835 0.78161-4.6146 3.1729-4.6116zm15.897 7.1815c5.6311-0.05007 11.147 8.5864 11.656 12.679-0.0298 4.1712-3.3903 4.6106-7.4088 2.4572-3.1921-1.297-5.0003-1.276-8.9969 0.17518-4.0186 2.1534-7.0749 1.1892-7.1629-2.6908 0.009568-5.5223 4.6478-12.45 11.367-12.589 0.18172-0.02014 0.36354-0.03042 0.54519-0.03204z" fill="#fff" stop-color="#000000"/><g transform="rotate(.946 1106.8 -103.97)" fill="#fff"><circle transform="rotate(210.4)" cx="-127.33" cy="-43.342" r="42.077" fill="none"/><g stroke-width="15.199" aria-label="FURCATION"><path d="m52.151 79.311-9.19-6.935 4.678-6.201 1.085.818-3.761 4.985 2.846 2.148 3.255-4.314 1.085.819-3.255 4.313 4.175 3.151zM56.203 58.48l1.178-.966 4.218 5.144q1.1 1.343 1.445 2.381.343 1.039-.044 2.19-.386 1.139-1.674 2.194-1.25 1.026-2.4 1.248-1.15.22-2.157-.314-1.012-.541-2.173-1.956l-4.218-5.145 1.178-.966 4.214 5.138q.95 1.16 1.617 1.539.666.367 1.433.236.772-.135 1.531-.758 1.3-1.066 1.37-2.108.07-1.042-1.305-2.719zM66.242 65.445 61.459 54.97l4.645-2.12q1.4-.64 2.26-.687.855-.054 1.617.462.762.515 1.157 1.38.509 1.114.136 2.208-.372 1.094-1.785 1.99.67.013 1.074.14.862.28 1.786.868l3.124 2.019-1.743.796-2.381-1.547q-1.038-.665-1.66-.986-.621-.32-1.027-.377-.398-.06-.756.008-.258.058-.794.302l-1.608.734 2.124 4.652zm-1.286-6.485 2.98-1.36q.95-.434 1.398-.872.444-.444.527-1 .08-.563-.152-1.07-.34-.744-1.1-.975-.755-.234-1.92.298l-3.315 1.514zM83.617 55.76l1.567.119q-.151 1.931-1.213 3.12-1.055 1.18-2.827 1.486-1.834.318-3.116-.225-1.276-.552-2.125-1.863-.841-1.313-1.123-2.938-.307-1.773.138-3.205.452-1.441 1.58-2.338 1.134-.907 2.635-1.167 1.703-.295 3.014.37 1.311.666 2.04 2.158l-1.418.604q-.61-1.17-1.458-1.604-.848-.435-1.986-.238-1.308.227-2.081 1.007-.766.778-.938 1.9-.174 1.114.02 2.236.251 1.448.857 2.459.612 1.002 1.595 1.381.982.38 2.02.2 1.26-.218 2.01-1.098.748-.879.809-2.364zM85.701 59.525l5.118-11.222 1.638.1 4 11.78-1.732-.105-1.128-3.563-4.806-.294-1.475 3.403zm3.605-4.516 3.897.238-1.005-3.256q-.46-1.484-.67-2.433-.287 1.092-.753 2.157zM98.54 61.101l2.751-9.776-3.652-1.027.368-1.308 8.786 2.471-.368 1.308-3.667-1.031-2.75 9.776zM104.573 63.187l4.762-10.483 1.388.63-4.763 10.483zM110.654 59.572q1.638-2.353 3.826-2.801 2.192-.455 4.19.936 1.31.911 1.925 2.268.615 1.357.382 2.86-.222 1.501-1.21 2.92-1 1.437-2.37 2.167-1.37.73-2.842.577-1.468-.16-2.699-1.018-1.334-.929-1.936-2.305-.602-1.376-.367-2.868t1.101-2.736zm1.276.917q-1.19 1.708-.96 3.331.239 1.622 1.625 2.587 1.411.983 3.011.623 1.607-.356 2.877-2.18.803-1.154 1.007-2.285.214-1.133-.212-2.128-.416-.998-1.35-1.649-1.328-.924-2.926-.678-1.587.245-3.072 2.379zM117.317 71.393l8.854-7.361 1 1.202-3.086 10.43 6.952-5.78.933 1.124-8.854 7.36-1-1.201 3.092-10.435-6.957 5.784z"/></g></g></svg>
